X: 26
T: Polska efter Wiger
T: Polska efter skomakar Wigers
T: Wiggerts Polska
O: H\"alsingland, Sweden
R: hambo, polska
S: http://www.folksweden.com/files/Polska_efter_Wiger.pdf (Tim Rued)
Z: 2021 John Chambers <jc:trillian.mit.edu>
M: 3/4
L: 1/8
K: G
|:\
g2 B2 cA | GF GB d2 | cB cg ec | B2 B4 |\
AB cd e2 | dA FA d2 | dc Bc AF | G2 G4 :|
|:\
B2 c2 d2 | e2 e4    | gg ff ee | dg B4 |\
AB cd e2 | dA FA d2 | dc Bc AF | G2 G4 :|
